X: 5168
T: Bring Back The Child
R: jig
M: 6/8
K: Gmajor
gfe d2B|cAA BGG|gfe d2B|cAF G3:|
FAA A2B|cAA BGG|FAA A2B|cAF G3:|

